X:1
T:The Horse With A Union Label
M:4/4
L:1/4
K:C
 G| E G G G| A G E D| C C C C| A, G,3| C4| E2 G2| A- G3-| G2 z A| c c c c|\
 d c c c| d c c c| d c c A| G2 G2| A G2 A| E G3-| G2 z G| A c c c|\
 d c c c/2c/2| d c c c| d c c A| G G G G| G c2 E| E- D3-| D2 G2| E C3-|\
 C2 E2| G4-| G2 C2| E4-| E2 E2| G2 A2| c2 e2| d4-| d2 e2| d4-| d2 A2|\
 A- c3-| c2 E F| G2 G G| A- G2 A| E C3-| C2 z||
